X:1
T:Renaud le Tueur de Femmes
B:Henri Davenson, Le Livre des Chansons, 1955.
F:http://www.folkinfo.org/songs
L:1/8
Q:200
M:6/8
K:D
D D F|A2 A B2 B|A3 d c d|
w:Re-naud a de si grands ap-pas Qui'il a char-
e2 d (cd) B|A2 z A d d|F3 A G F|
w:mÃ?Â© la fille_ au roi. L'a bien em-me-nÃ?Â©e Ã?Â  sept
E3 A A A|B3 A G E|D2 z A G F|
w:lieues Sans qu'il lui dit un mot ou deux. L'a bien em-
F3 A G F|E3 A A A|B3 A G F|D4 z2|]
w:me-nÃ?Â©e Ã?Â  sept lieues Sans qu'il lui dit un mot ou deux.